public/img/Socials__Instagram.svg

<?xml version="1.0" encoding="UTF-8" standalone="no"?>
<svg
   xmlns:dc="http://purl.org/dc/elements/1.1/"
   xmlns:cc="http://creativecommons.org/ns#"
   xmlns:rdf="http://www.w3.org/1999/02/22-rdf-syntax-ns#"
   xmlns:svg="http://www.w3.org/2000/svg"
   xmlns="http://www.w3.org/2000/svg"
   style="fill:none"
   id="svg12"
   version="1.1"
   viewBox="0 0 29 29"
   height="29"
   width="29">
  <metadata
     id="metadata18">
    <rdf:RDF>
      <cc:Work
         rdf:about="">
        <dc:format>image/svg+xml</dc:format>
        <dc:type
           rdf:resource="http://purl.org/dc/dcmitype/StillImage" />
      </cc:Work>
    </rdf:RDF>
  </metadata>
  <defs
     id="defs16" />
  <path
     style="fill:#000000"
     id="path2"
     d="M 20.735,0 H 8.265 C 3.72169,0 0,3.72169 0,8.265 v 12.47 C 0,25.2783 3.72169,29 8.265,29 h 12.47 C 25.2783,29 29,25.2783 29,20.735 V 8.265 C 29,3.72169 25.2783,0 20.735,0 Z m 7.2983,20.735 c 0,4.0117 -3.2867,7.2983 -7.2983,7.2983 H 8.265 c -4.01169,0 -7.298314,-3.2867 -7.298314,-7.2983 V 8.265 c 0,-4.01169 3.286684,-7.298314 7.298314,-7.298314 h 12.47 c 4.0117,0 7.2983,3.286684 7.2983,7.298314 z" />
  <path
     style="fill:#000000"
     id="path4"
     d="m 20.7349,2.89996 h -12.47 c -2.94831,0 -5.365,2.41669 -5.365,5.365 V 20.735 c 0,2.9483 2.41669,5.365 5.365,5.365 h 12.47 c 2.9483,0 5.365,-2.4167 5.365,-5.365 V 8.26496 c 0,-2.94831 -2.4167,-5.365 -5.365,-5.365 z M 25.1332,20.735 c 0,2.4166 -1.9817,4.3983 -4.3983,4.3983 h -12.47 c -2.41668,0 -4.39831,-1.9817 -4.39831,-4.3983 V 8.26496 c 0,-2.41668 1.98168,-4.39831 4.39831,-4.39831 h 12.47 c 2.4167,0 4.3983,1.98168 4.3983,4.39831 z" />
  <path
     style="fill:#000000"
     id="path6"
     d="m 14.4999,6.76672 c -4.2533,0 -7.7333,3.47998 -7.7333,7.73328 0,4.2534 3.48,7.7334 7.7333,7.7334 4.2533,0 7.7333,-3.48 7.7333,-7.7334 0,-4.2533 -3.48,-7.73328 -7.7333,-7.73328 z m 0,14.49998 c -3.7217,0 -6.76667,-3.045 -6.76667,-6.7667 0,-3.7216 3.04497,-6.76665 6.76667,-6.76665 3.7217,0 6.7667,3.04505 6.7667,6.76665 0,3.7217 -3.045,6.7667 -6.7667,6.7667 z" />
  <path
     style="fill:#000000"
     id="path8"
     d="m 14.5003,9.18329 c -2.9483,0 -5.31671,2.36831 -5.31671,5.31671 0,2.9483 2.36831,5.3167 5.31671,5.3167 2.9484,0 5.3167,-2.3684 5.3167,-5.3167 0,-2.9484 -2.3684,-5.31671 -5.3167,-5.31671 z m 0,9.66671 c -2.4167,0 -4.35,-1.9333 -4.35,-4.35 0,-2.4167 1.9333,-4.35 4.35,-4.35 2.4167,0 4.35,1.9333 4.35,4.35 0,2.4167 -1.9333,4.35 -4.35,4.35 z" />
  <path
     style="fill:#000000"
     id="path10"
     d="m 22.2332,5.31671 c -0.8217,0 -1.45,0.62832 -1.45,1.45 0,0.82169 0.6283,1.45 1.45,1.45 0.8217,0 1.45,-0.62831 1.45,-1.45 0,-0.82168 -0.6283,-1.45 -1.45,-1.45 z" />
</svg>

<svg width="29" height="29" viewBox="0 0 29 29" fill="none" xmlns="http://www.w3.org/2000/svg">
<path d="M20.735 0H8.265C3.72169 0 0 3.72169 0 8.265V20.735C0 25.2783 3.72169 29 8.265 29H20.735C25.2783 29 29 25.2783 29 20.735V8.265C29 3.72169 25.2783 0 20.735 0ZM28.0333 20.735C28.0333 24.7467 24.7466 28.0333 20.735 28.0333H8.265C4.25331 28.0333 0.966686 24.7466 0.966686 20.735V8.265C0.966686 4.25331 4.25337 0.966686 8.265 0.966686H20.735C24.7467 0.966686 28.0333 4.25337 28.0333 8.265V20.735Z" fill="black"/>
<path d="M20.7349 2.89996H8.2649C5.31659 2.89996 2.8999 5.31665 2.8999 8.26496V20.735C2.8999 23.6833 5.31659 26.1 8.2649 26.1H20.7349C23.6832 26.1 26.0999 23.6833 26.0999 20.735V8.26496C26.0999 5.31665 23.6832 2.89996 20.7349 2.89996ZM25.1332 20.735C25.1332 23.1516 23.1515 25.1333 20.7349 25.1333H8.2649C5.84822 25.1333 3.86659 23.1516 3.86659 20.735V8.26496C3.86659 5.84828 5.84827 3.86665 8.2649 3.86665H20.7349C23.1516 3.86665 25.1332 5.84833 25.1332 8.26496V20.735Z" fill="black"/>
<path d="M14.4999 6.76672C10.2466 6.76672 6.7666 10.2467 6.7666 14.5C6.7666 18.7534 10.2466 22.2334 14.4999 22.2334C18.7532 22.2334 22.2332 18.7534 22.2332 14.5C22.2332 10.2467 18.7532 6.76672 14.4999 6.76672ZM14.4999 21.2667C10.7782 21.2667 7.73323 18.2217 7.73323 14.5C7.73323 10.7784 10.7782 7.73335 14.4999 7.73335C18.2216 7.73335 21.2666 10.7784 21.2666 14.5C21.2666 18.2217 18.2216 21.2667 14.4999 21.2667Z" fill="black"/>
<path d="M14.5003 9.18329C11.552 9.18329 9.18359 11.5516 9.18359 14.5C9.18359 17.4483 11.5519 19.8167 14.5003 19.8167C17.4487 19.8167 19.817 17.4483 19.817 14.5C19.817 11.5516 17.4486 9.18329 14.5003 9.18329ZM14.5003 18.85C12.0836 18.85 10.1503 16.9167 10.1503 14.5C10.1503 12.0833 12.0836 10.15 14.5003 10.15C16.917 10.15 18.8503 12.0833 18.8503 14.5C18.8503 16.9167 16.917 18.85 14.5003 18.85Z" fill="black"/>
<path d="M22.2332 5.31671C21.4115 5.31671 20.7832 5.94503 20.7832 6.76671C20.7832 7.5884 21.4115 8.21671 22.2332 8.21671C23.0549 8.21671 23.6832 7.5884 23.6832 6.76671C23.6832 5.94503 23.0549 5.31671 22.2332 5.31671Z" fill="black"/>
</svg>
